images/icons/brickwall_2.svg

<svg height="32pt" viewBox="0 0 32 32" width="32pt" xmlns="http://www.w3.org/2000/svg"><g fill="#fff"><path d="m1.066406 20.800781h10.667969c.585937 0 1.066406-.476562 1.066406-1.066406v-7.46875c0-.585937-.480469-1.066406-1.066406-1.066406h-10.667969c-.589844 0-1.066406.480469-1.066406 1.066406v7.46875c0 .589844.476562 1.066406 1.066406 1.066406zm0-8.535156h10.667969v7.46875h-10.667969zm0 0"/><path d="m1.066406 32h4.265625c.589844 0 1.066407-.476562 1.066407-1.066406v-7.46875c0-.585938-.476563-1.0625-1.066407-1.066406h-4.265625c-.589844.003906-1.066406.480468-1.066406 1.066406v7.46875c0 .589844.476562 1.066406 1.066406 1.066406zm0-8.535156h4.265625l.003907 7.46875h-4.269532zm0 0"/><path d="m30.933594 0h-29.867188c-.589844 0-1.066406.476562-1.066406 1.066406v7.46875c0 .585938.476562 1.0625 1.066406 1.066406h14.683594c.300781.507813.5625 1.046876.773438 1.597657h-1.058594c-.585938 0-1.0625.480469-1.066406 1.066406v7.46875c.003906.585937.480468 1.066406 1.066406 1.066406h1.027344c-.007813.238281-.019532.480469-.019532.71875.003906.285157.019532.578125.039063.878907h-7.445313c-.589844.003906-1.066406.480468-1.066406 1.066406v7.46875c0 .589844.476562 1.066406 1.066406 1.066406h21.867188c.589844 0 1.066406-.476562 1.066406-1.066406v-29.867188c0-.589844-.476562-1.066406-1.066406-1.066406zm-29.867188 1.066406h8.929688c-.035156.746094-.011719 1.496094.074218 2.238282.292969 1.53125 1.488282 2.304687 2.542969 2.988281l.171875.109375c.871094.574218 1.632813 1.296875 2.257813 2.132812h-13.976563zm14.398438 11.199219h1.402344c.242187.890625.375 1.808594.390624 2.730469-.015624.824218-.128906 1.644531-.335937 2.441406-.082031.359375-.160156.71875-.226563 1.09375-.070312.390625-.113281.796875-.148437 1.203125h-1.082031zm-6.398438 11.199219h7.550782c.28125 2.71875 1.320312 5.304687 2.992187 7.46875h-10.542969zm21.867188 7.46875h-9.910156c-2.003907-2.226563-3.203126-5.058594-3.410157-8.046875-.042969-.480469-.066406-.941407-.070312-1.378907-.007813-.398437.003906-.804687.03125-1.214843.023437-.527344.082031-1.054688.171875-1.574219.0625-.359375.140625-.707031.214844-1.054688.230468-.875.351562-1.777343.363281-2.683593-.019531-1.15625-.199219-2.304688-.539063-3.40625-.304687-.980469-.730468-1.917969-1.273437-2.789063-.792969-1.308594-1.867188-2.429687-3.144531-3.273437l-.175782-.113281c-1-.648438-1.867187-1.210938-2.074218-2.28125-.0625-.679688-.082032-1.367188-.058594-2.050782h19.875zm0 0"/><path d="m12.1875 3.003906c.160156.550782.707031.929688 1.585938 1.496094l.179687.117188c1.40625.929687 2.589844 2.160156 3.460937 3.601562.59375.953125 1.058594 1.976562 1.390626 3.050781.089843.277344.386718.433594.667968.347657.28125-.089844.4375-.386719.351563-.667969-.359375-1.160157-.863281-2.265625-1.503907-3.292969-.953124-1.574219-2.246093-2.917969-3.785156-3.933594l-.183594-.117187c-.414062-.230469-.792968-.523438-1.125-.867188l-.007812-.105469c-.019531-.296874-.273438-.519531-.570312-.5-.292969.019532-.515626.273438-.496094.570313.007812.074219.011718.144531.015625.203125.003906.03125.011719.066406.019531.097656zm0 0"/><path d="m19.390625 14.960938c-.011719 1-.144531 1.996093-.394531 2.964843-.070313.320313-.140625.644531-.199219.976563-.085937.484375-.136719.972656-.160156 1.464844-.023438.375-.035157.753906-.027344 1.128906.003906.40625.027344.839844.066406 1.285156.175781 2.511719 1.101563 4.910156 2.652344 6.890625.121094.15625.316406.230469.507813.199219.191406-.027344.351562-.160156.417968-.34375s.027344-.386719-.101562-.535156c-1.40625-1.816407-2.246094-4.011719-2.414063-6.308594-.039062-.417969-.058593-.820313-.0625-1.203125-.007812-.34375.003907-.695313.027344-1.050781.019531-.449219.066406-.898438.144531-1.34375.054688-.316407.125-.625.199219-.960938.265625-1.042969.402344-2.109375.410156-3.183594-.003906-.289062-.242187-.523437-.53125-.523437h-.007812c-.144531.003906-.277344.0625-.375.164062-.101563.101563-.152344.238281-.152344.378907zm0 0"/></g></svg>

<?xml version="1.0" encoding="UTF-8"?>
<svg xmlns="http://www.w3.org/2000/svg" xmlns:xlink="http://www.w3.org/1999/xlink" width="32pt" height="32pt" viewBox="0 0 32 32" version="1.1">
<g id="surface1">
<path style=" stroke:none;fill-rule:nonzero;fill:rgb(255%,255%,255%);fill-opacity:1;" d="M 1.066406 20.800781 L 11.734375 20.800781 C 12.320312 20.800781 12.800781 20.324219 12.800781 19.734375 L 12.800781 12.265625 C 12.800781 11.679688 12.320312 11.199219 11.734375 11.199219 L 1.066406 11.199219 C 0.476562 11.199219 0 11.679688 0 12.265625 L 0 19.734375 C 0 20.324219 0.476562 20.800781 1.066406 20.800781 Z M 1.066406 12.265625 L 11.734375 12.265625 L 11.734375 19.734375 L 1.066406 19.734375 Z M 1.066406 12.265625 "/>
<path style=" stroke:none;fill-rule:nonzero;fill:rgb(255%,255%,255%);fill-opacity:1;" d="M 1.066406 32 L 5.332031 32 C 5.921875 32 6.398438 31.523438 6.398438 30.933594 L 6.398438 23.464844 C 6.398438 22.878906 5.921875 22.402344 5.332031 22.398438 L 1.066406 22.398438 C 0.476562 22.402344 0 22.878906 0 23.464844 L 0 30.933594 C 0 31.523438 0.476562 32 1.066406 32 Z M 1.066406 23.464844 L 5.332031 23.464844 L 5.335938 30.933594 L 1.066406 30.933594 Z M 1.066406 23.464844 "/>
<path style=" stroke:none;fill-rule:nonzero;fill:rgb(255%,255%,255%);fill-opacity:1;" d="M 30.933594 0 L 1.066406 0 C 0.476562 0 0 0.476562 0 1.066406 L 0 8.535156 C 0 9.121094 0.476562 9.597656 1.066406 9.601562 L 15.75 9.601562 C 16.050781 10.109375 16.3125 10.648438 16.523438 11.199219 L 15.464844 11.199219 C 14.878906 11.199219 14.402344 11.679688 14.398438 12.265625 L 14.398438 19.734375 C 14.402344 20.320312 14.878906 20.800781 15.464844 20.800781 L 16.492188 20.800781 C 16.484375 21.039062 16.472656 21.28125 16.472656 21.519531 C 16.476562 21.804688 16.492188 22.097656 16.511719 22.398438 L 9.066406 22.398438 C 8.476562 22.402344 8 22.878906 8 23.464844 L 8 30.933594 C 8 31.523438 8.476562 32 9.066406 32 L 30.933594 32 C 31.523438 32 32 31.523438 32 30.933594 L 32 1.066406 C 32 0.476562 31.523438 0 30.933594 0 Z M 1.066406 1.066406 L 9.996094 1.066406 C 9.960938 1.8125 9.984375 2.5625 10.070312 3.304688 C 10.363281 4.835938 11.558594 5.609375 12.613281 6.292969 L 12.785156 6.402344 C 13.65625 6.976562 14.417969 7.699219 15.042969 8.535156 L 1.066406 8.535156 Z M 15.464844 12.265625 L 16.867188 12.265625 C 17.109375 13.15625 17.242188 14.074219 17.257812 14.996094 C 17.242188 15.820312 17.128906 16.640625 16.921875 17.4375 C 16.839844 17.796875 16.761719 18.15625 16.695312 18.53125 C 16.625 18.921875 16.582031 19.328125 16.546875 19.734375 L 15.464844 19.734375 Z M 9.066406 23.464844 L 16.617188 23.464844 C 16.898438 26.183594 17.9375 28.769531 19.609375 30.933594 L 9.066406 30.933594 Z M 30.933594 30.933594 L 21.023438 30.933594 C 19.019531 28.707031 17.820312 25.875 17.613281 22.886719 C 17.570312 22.40625 17.546875 21.945312 17.542969 21.507812 C 17.535156 21.109375 17.546875 20.703125 17.574219 20.292969 C 17.597656 19.765625 17.65625 19.238281 17.746094 18.71875 C 17.808594 18.359375 17.886719 18.011719 17.960938 17.664062 C 18.191406 16.789062 18.3125 15.886719 18.324219 14.980469 C 18.304688 13.824219 18.125 12.675781 17.785156 11.574219 C 17.480469 10.59375 17.054688 9.65625 16.511719 8.785156 C 15.71875 7.476562 14.644531 6.355469 13.367188 5.511719 L 13.191406 5.398438 C 12.191406 4.75 11.324219 4.1875 11.117188 3.117188 C 11.054688 2.4375 11.035156 1.75 11.058594 1.066406 L 30.933594 1.066406 Z M 30.933594 30.933594 "/>
<path style=" stroke:none;fill-rule:nonzero;fill:rgb(255%,255%,255%);fill-opacity:1;" d="M 12.1875 3.003906 C 12.347656 3.554688 12.894531 3.933594 13.773438 4.5 L 13.953125 4.617188 C 15.359375 5.546875 16.542969 6.777344 17.414062 8.21875 C 18.007812 9.171875 18.472656 10.195312 18.804688 11.269531 C 18.894531 11.546875 19.191406 11.703125 19.472656 11.617188 C 19.753906 11.527344 19.910156 11.230469 19.824219 10.949219 C 19.464844 9.789062 18.960938 8.683594 18.320312 7.65625 C 17.367188 6.082031 16.074219 4.738281 14.535156 3.722656 L 14.351562 3.605469 C 13.9375 3.375 13.558594 3.082031 13.226562 2.738281 L 13.21875 2.632812 C 13.199219 2.335938 12.945312 2.113281 12.648438 2.132812 C 12.355469 2.152344 12.132812 2.40625 12.152344 2.703125 C 12.160156 2.777344 12.164062 2.847656 12.167969 2.90625 C 12.171875 2.9375 12.179688 2.972656 12.1875 3.003906 Z M 12.1875 3.003906 "/>
<path style=" stroke:none;fill-rule:nonzero;fill:rgb(255%,255%,255%);fill-opacity:1;" d="M 19.390625 14.960938 C 19.378906 15.960938 19.246094 16.957031 18.996094 17.925781 C 18.925781 18.246094 18.855469 18.570312 18.796875 18.902344 C 18.710938 19.386719 18.660156 19.875 18.636719 20.367188 C 18.613281 20.742188 18.601562 21.121094 18.609375 21.496094 C 18.613281 21.902344 18.636719 22.335938 18.675781 22.78125 C 18.851562 25.292969 19.777344 27.691406 21.328125 29.671875 C 21.449219 29.828125 21.644531 29.902344 21.835938 29.871094 C 22.027344 29.84375 22.1875 29.710938 22.253906 29.527344 C 22.320312 29.34375 22.28125 29.140625 22.152344 28.992188 C 20.746094 27.175781 19.90625 24.980469 19.738281 22.683594 C 19.699219 22.265625 19.679688 21.863281 19.675781 21.480469 C 19.667969 21.136719 19.679688 20.785156 19.703125 20.429688 C 19.722656 19.980469 19.769531 19.53125 19.847656 19.085938 C 19.902344 18.769531 19.972656 18.460938 20.046875 18.125 C 20.3125 17.082031 20.449219 16.015625 20.457031 14.941406 C 20.453125 14.652344 20.214844 14.417969 19.925781 14.417969 L 19.917969 14.417969 C 19.773438 14.421875 19.640625 14.480469 19.542969 14.582031 C 19.441406 14.683594 19.390625 14.820312 19.390625 14.960938 Z M 19.390625 14.960938 "/>
</g>
</svg>
